image/Mail.svg

<svg width="24" height="24" viewBox="0 0 24 24" fill="none" xmlns="http://www.w3.org/2000/svg">
<path fill-rule="evenodd" clip-rule="evenodd" d="M2.544 5.168C2.8 4.80788 3.13824 4.51404 3.53061 4.3109C3.92298 4.10776 4.35816 4.00117 4.8 4H19.2C20.136 4 20.953 4.47 21.456 5.168C21.799 5.646 22 6.235 22 6.867V17.133C22 18.682 20.78 20 19.2 20H4.8C3.22 20 2 18.682 2 17.133V6.867C2 6.235 2.2 5.646 2.544 5.167V5.168ZM4.933 6L11.26 12.965C11.3537 13.0681 11.468 13.1505 11.5954 13.2069C11.7228 13.2633 11.8607 13.2924 12 13.2924C12.1393 13.2924 12.2772 13.2633 12.4046 13.2069C12.532 13.1505 12.6463 13.0681 12.74 12.965L19.067 6H4.933ZM20 7.948L14.22 14.31C13.9388 14.6194 13.5961 14.8665 13.2138 15.0357C12.8315 15.2048 12.418 15.2922 12 15.2922C11.582 15.2922 11.1685 15.2048 10.7862 15.0357C10.4039 14.8665 10.0612 14.6194 9.78 14.31L4 7.948V17.133C4 17.647 4.392 18 4.8 18H19.2C19.608 18 20 17.647 20 17.133V7.948Z" fill="black"/>
</svg>

<svg width="24" height="24" fill="none" xmlns="http://www.w3.org/2000/svg"><path fill-rule="evenodd" clip-rule="evenodd" d="M2.544 5.168A2.777 2.777 0 014.8 4h14.4c.936 0 1.753.47 2.256 1.168.343.478.544 1.067.544 1.699v10.266C22 18.682 20.78 20 19.2 20H4.8C3.22 20 2 18.682 2 17.133V6.867c0-.632.2-1.221.544-1.7v.001zM4.933 6l6.327 6.965a1 1 0 001.48 0L19.067 6H4.933zM20 7.948l-5.78 6.362a3 3 0 01-4.44 0L4 7.948v9.185c0 .514.392.867.8.867h14.4c.408 0 .8-.353.8-.867V7.948z" fill="#000"/></svg>
